X:3097
T:Cliffs of Moher (another B part)
N:yet another version of the B part
Z: id:ng-jigs-18
R:jig
M:6/8
K:ADor
ege dBB|eBe dBA|GAB dBA|GAB dBd|1ege dBB|eBe dBA|GAB dBA|\
DEG A3:|2ege cee|Bee Aee|DEG A2 G|EDB, A,3|]


